icons/svg/narrator.svg

<svg width="24" height="24" viewBox="0 0 24 24" fill="none" xmlns="http://www.w3.org/2000/svg">
<path d="M7.18341 16.9584H7.93341C7.93341 16.5442 7.59762 16.2084 7.18341 16.2084V16.9584ZM8.02201 21.1182L8.52991 21.67H8.52991L8.02201 21.1182ZM12.5417 16.9584V16.2084C12.3535 16.2084 12.1723 16.2791 12.0338 16.4066L12.5417 16.9584ZM3.83931 6.7497C3.83931 4.95477 5.29438 3.49969 7.08931 3.49969V1.99969C4.46596 1.99969 2.33931 4.12634 2.33931 6.7497H3.83931ZM3.83931 12.9584V6.7497H2.33931V12.9584H3.83931ZM7.08931 16.2084C5.29438 16.2084 3.83931 14.7533 3.83931 12.9584H2.33931C2.33931 15.5818 4.46596 17.7084 7.08931 17.7084V16.2084ZM7.16108 16.2084H7.08931V17.7084H7.16108V16.2084ZM7.18341 16.2084H7.16108V17.7084H7.18341V16.2084ZM7.93341 20.7503V16.9584H6.43341V20.7503H7.93341ZM7.51411 20.5663C7.67434 20.4189 7.93341 20.5325 7.93341 20.7503H6.43341C6.43341 21.8391 7.72876 22.4074 8.52991 21.67L7.51411 20.5663ZM12.0338 16.4066L7.51411 20.5663L8.52991 21.67L13.0496 17.5103L12.0338 16.4066ZM16.9107 16.2084H12.5417V17.7084H16.9107V16.2084ZM20.1607 12.9584C20.1607 14.7533 18.7056 16.2084 16.9107 16.2084V17.7084C19.534 17.7084 21.6607 15.5818 21.6607 12.9584H20.1607ZM20.1607 6.74969V12.9584H21.6607V6.74969H20.1607ZM16.9107 3.49969C18.7056 3.49969 20.1607 4.95477 20.1607 6.74969H21.6607C21.6607 4.12634 19.534 1.99969 16.9107 1.99969V3.49969ZM7.08931 3.49969H16.9107V1.99969H7.08931V3.49969Z" fill="currentColor"/>
<path d="M12 14V6M15.25 11.7884V8.21161M8.75 11.7884V8.21161" stroke="currentColor" stroke-width="1.5" stroke-linecap="round" stroke-linejoin="round"/>
</svg>

<svg xmlns="http://www.w3.org/2000/svg" width="24" height="24" fill="none" viewBox="0 0 24 24"><path fill="currentColor" d="M7.183 16.958h.75a.75.75 0 0 0-.75-.75zm.839 4.16.508.552zm4.52-4.16v-.75a.75.75 0 0 0-.508.199zM3.839 6.75A3.25 3.25 0 0 1 7.09 3.5V2a4.75 4.75 0 0 0-4.75 4.75zm0 6.208V6.75h-1.5v6.208zm3.25 3.25a3.25 3.25 0 0 1-3.25-3.25h-1.5a4.75 4.75 0 0 0 4.75 4.75zm.072 0H7.09v1.5h.072zm.022 0h-.022v1.5h.022zm.75 4.542v-3.792h-1.5v3.792zm-.419-.184a.25.25 0 0 1 .42.184h-1.5c0 1.09 1.295 1.657 2.096.92zm4.52-4.16-4.52 4.16L8.53 21.67l4.52-4.16zm4.877-.198h-4.37v1.5h4.37zm3.25-3.25a3.25 3.25 0 0 1-3.25 3.25v1.5a4.75 4.75 0 0 0 4.75-4.75zm0-6.208v6.208h1.5V6.75zM16.91 3.5a3.25 3.25 0 0 1 3.25 3.25h1.5A4.75 4.75 0 0 0 16.91 2zm-9.822 0h9.822V2H7.089z"/><path stroke="currentColor" stroke-linecap="round" stroke-linejoin="round" stroke-width="1.5" d="M12 14V6m3.25 5.788V8.212m-6.5 3.576V8.212"/></svg>
